X: 7614
T: Coilsfield House
R: barndance
M: 4/4
K: Dmajor
|:de|f2 A2 d2 F2|D6 ef|g2 e2 f2 d2|ce-e2 A3g|
gfed dcBA|d4 B2 GE|F2 d2 E2 c>c|d4 D2:|
|:fg|a3b a2 f2|b4 e2 fg|a2 d2 c2 d>f|edcB A2 g>g|
f2 d2 A2 F2|G2 AB E4 -|M:2/4
E2 AG|M:4/4
F2 d2 E2 c>c|d4 D2:|

